public/brand-logo.svg

<svg width="170" height="49" viewBox="0 0 170 49" fill="none" xmlns="http://www.w3.org/2000/svg">
<g id="logo">
<g id="Group 9">
<path id="Vector" d="M5.97236 40.9915C6.5926 41.4859 6.99202 42.2056 7.08347 42.9935L6.14252 43.0836C6.07298 42.4959 5.77885 41.9579 5.32168 41.5821C4.84434 41.2129 4.25316 41.0217 3.65 41.0415C3.27723 41.0214 2.90463 41.0837 2.55862 41.2238C2.21261 41.3639 1.90169 41.5785 1.64797 41.8524C1.12188 42.4654 0.85291 43.258 0.89721 44.0646C0.846057 44.88 1.11956 45.6824 1.65799 46.2969C1.91638 46.5633 2.22857 46.7717 2.57377 46.908C2.91898 47.0444 3.28929 47.1057 3.66002 47.0877C4.24005 47.138 4.81758 46.9666 5.27634 46.6082C5.73511 46.2497 6.04101 45.7307 6.1325 45.1557L7.08347 45.2358C6.97445 46.0087 6.56873 46.7089 5.95232 47.1878C5.21918 47.7057 4.33097 47.9573 3.43512 47.9008C2.53927 47.8444 1.68969 47.4833 1.02735 46.8775C0.363881 46.0904 0 45.0941 0 44.0646C0 43.0352 0.363881 42.0389 1.02735 41.2518C1.69436 40.6433 2.55169 40.2847 3.45333 40.2373C4.35496 40.1898 5.24515 40.4564 5.97236 40.9915Z" fill="#231F20"/>
<path id="Vector_2" d="M15.7922 40.2107C16.2853 40.1876 16.7781 40.2644 17.2408 40.4364C17.7036 40.6084 18.1267 40.8721 18.4849 41.2118C18.8473 41.5776 19.1297 42.0148 19.3141 42.4956C19.4985 42.9764 19.5809 43.4903 19.556 44.0046C19.5798 44.5204 19.497 45.0354 19.3128 45.5177C19.1285 46 18.8466 46.439 18.4849 46.8075C17.7474 47.4799 16.7853 47.8527 15.7872 47.8527C14.7891 47.8527 13.827 47.4799 13.0895 46.8075C12.7278 46.439 12.446 46 12.2617 45.5177C12.0774 45.0354 11.9946 44.5204 12.0184 44.0046C11.9887 43.498 12.0653 42.9908 12.2435 42.5156C12.4216 42.0405 12.6974 41.6079 13.0529 41.2458C13.4084 40.8837 13.8359 40.6 14.3077 40.4132C14.7795 40.2263 15.2852 40.1403 15.7922 40.1607V40.2107ZM13.7902 41.8424C13.2723 42.4633 12.9886 43.2462 12.9886 44.0547C12.9886 44.8632 13.2723 45.6461 13.7902 46.2669C14.0527 46.5292 14.3651 46.736 14.709 46.8753C15.0529 47.0146 15.4212 47.0834 15.7922 47.0778C16.1635 47.0857 16.5325 47.0179 16.8768 46.8785C17.221 46.7391 17.5331 46.531 17.7942 46.2669C18.3122 45.6461 18.5958 44.8632 18.5958 44.0547C18.5958 43.2462 18.3122 42.4633 17.7942 41.8424C17.2395 41.3303 16.5122 41.0459 15.7572 41.0459C15.0022 41.0459 14.2749 41.3303 13.7201 41.8424H13.7902Z" fill="#231F20"/>
<path id="Vector_3" d="M30.7312 47.7984H29.9503L25.9463 42.0126V47.7984H25.0254V40.3109H25.7962L29.8002 46.1067V40.3109H30.7111L30.7312 47.7984Z" fill="#231F20"/>
<path id="Vector_4" d="M40.5711 40.7713C40.8032 40.9516 40.9914 41.1822 41.1214 41.4457C41.2515 41.7093 41.32 41.9989 41.3218 42.2928L40.3909 42.3529C40.3789 42.155 40.3263 41.9618 40.2362 41.7852C40.1461 41.6086 40.0206 41.4525 39.8675 41.3266C39.7144 41.2007 39.5369 41.1077 39.3462 41.0535C39.1555 40.9993 38.9557 40.985 38.7592 41.0116C37.7582 41.0116 37.1376 41.5421 37.1376 42.3029C37.122 42.47 37.1519 42.6383 37.2242 42.7899C37.2964 42.9414 37.4083 43.0706 37.548 43.1637C37.9932 43.388 38.4687 43.5465 38.9595 43.6342C39.625 43.7484 40.2632 43.9861 40.8414 44.3349C41.0759 44.4814 41.2653 44.6897 41.389 44.937C41.5126 45.1843 41.5656 45.4609 41.5421 45.7363C41.5603 46.0476 41.5012 46.3584 41.3702 46.6414C41.2392 46.9243 41.0404 47.1704 40.7913 47.358C40.2289 47.7395 39.5583 47.9291 38.8794 47.8985C38.1666 47.9284 37.4636 47.7245 36.8773 47.3179C36.6213 47.1357 36.4118 46.8958 36.2657 46.6175C36.1196 46.3393 36.0411 46.0305 36.0365 45.7163L36.9574 45.6662C36.9752 45.8665 37.0374 46.0604 37.1396 46.2335C37.2418 46.4067 37.3813 46.5549 37.548 46.6673C37.9381 46.9374 38.4051 47.0744 38.8794 47.0577C39.8804 47.0577 40.6111 46.6373 40.6111 45.7664C40.6165 45.62 40.5898 45.4742 40.5327 45.3393C40.4756 45.2043 40.3896 45.0836 40.2808 44.9856C40.1551 44.8748 40.0088 44.7898 39.8504 44.7353C39.6783 44.6619 39.501 44.6017 39.3198 44.5551C39.1663 44.5017 38.9361 44.4417 38.6291 44.375C38.2287 44.2849 37.9084 44.1948 37.6281 44.1147C37.3708 44.0171 37.1229 43.8965 36.8874 43.7543C36.6451 43.5999 36.4498 43.382 36.3228 43.1243C36.1957 42.8666 36.1417 42.579 36.1667 42.2928C36.1618 42.0092 36.2173 41.7277 36.3295 41.4671C36.4416 41.2065 36.6079 40.9728 36.8173 40.7813C37.3429 40.3436 38.0167 40.125 38.6992 40.1707C39.3744 40.1445 40.0372 40.3572 40.5711 40.7713Z" fill="#231F20"/>
<path id="Vector_5" d="M53.0538 40.3109V44.9956C53.0538 45.7921 52.7374 46.5559 52.1742 47.1191C51.611 47.6823 50.8472 47.9986 50.0507 47.9986C49.2543 47.9986 48.4904 47.6823 47.9272 47.1191C47.364 46.5559 47.0477 45.7921 47.0477 44.9956V40.3209H47.9586V44.9956C47.9586 45.5452 48.1769 46.0722 48.5655 46.4608C48.9541 46.8494 49.4811 47.0677 50.0307 47.0677C50.5802 47.0677 51.1073 46.8494 51.4959 46.4608C51.8845 46.0722 52.1028 45.5452 52.1028 44.9956V40.3309L53.0538 40.3109Z" fill="#231F20"/>
<path id="Vector_6" d="M58.9797 46.9976H62.7336V47.8085H58.0588V40.3209H58.9797V46.9976Z" fill="#231F20"/>
<path id="Vector_7" d="M74.5555 41.1217H71.7727V47.7984H70.8518V41.1217H68.069V40.3109H74.5555V41.1217Z" fill="#231F20"/>
<path id="Vector_8" d="M87.1283 47.7984H86.1273L85.3464 45.8965H81.8729L81.0822 47.7984H80.0811L83.2143 40.3109H83.9951L87.1283 47.7984ZM82.1833 45.0957H84.9761L83.5847 41.7223L82.1833 45.0957Z" fill="#231F20"/>
<path id="Vector_9" d="M97.7991 47.7984H97.0184L93.0143 42.0126V47.7984H92.0933V40.3109H92.8641L96.8682 46.1067V40.3109H97.7791L97.7991 47.7984Z" fill="#231F20"/>
<path id="Vector_10" d="M109.077 40.9916C109.701 41.4842 110.104 42.2042 110.198 42.9936L109.197 43.0837C109.132 42.4947 108.837 41.9552 108.376 41.5822C107.899 41.213 107.308 41.0217 106.704 41.0416C106.332 41.0215 105.959 41.0837 105.613 41.2239C105.267 41.364 104.956 41.5786 104.702 41.8524C104.176 42.4655 103.907 43.2581 103.952 44.0647C103.9 44.8801 104.174 45.6825 104.712 46.2969C104.971 46.5634 105.283 46.7717 105.628 46.9081C105.973 47.0445 106.344 47.1057 106.714 47.0878C107.295 47.1359 107.873 46.964 108.333 46.6061C108.792 46.2482 109.101 45.7305 109.197 45.1558L110.198 45.2359C110.086 46.0103 109.677 46.7107 109.057 47.1879C108.324 47.7058 107.435 47.9574 106.54 47.9009C105.644 47.8445 104.794 47.4834 104.132 46.8775C103.468 46.0904 103.104 45.0941 103.104 44.0647C103.104 43.0353 103.468 42.039 104.132 41.2519C104.796 40.6404 105.653 40.2782 106.554 40.2271C107.456 40.176 108.347 40.4391 109.077 40.9715V40.9916Z" fill="#231F20"/>
<path id="Vector_11" d="M118.91 44.6853V47.7984H118V44.6853L115.117 40.3109H116.178L118.42 43.7844L120.642 40.3109H121.703L118.91 44.6853Z" fill="#231F20"/>
</g>
<g id="Group 11">
<path id="Vector_12" d="M129.33 8.11746L126.082 11.3669L133.119 18.4015L136.367 15.152L129.33 8.11746Z" fill="#231F20"/>
<path id="Vector_13" d="M154.001 8.13986L146.965 15.1756L150.214 18.4245L157.25 11.3887L154.001 8.13986Z" fill="#231F20"/>
<path id="Vector_14" d="M162.964 38.2133L159.715 41.4622L166.751 48.498L170 45.249L162.964 38.2133Z" fill="#231F20"/>
<path id="Vector_15" d="M145.873 38.2135L138.837 45.2493L142.086 48.4982L149.121 41.4624L145.873 38.2135Z" fill="#231F20"/>
<path id="Vector_16" d="M154.413 31.4419L141.67 18.699L128.697 31.6921H135.183L141.67 25.1855L154.413 37.9385L167.406 24.8152H160.97L154.413 31.4419Z" fill="#FE5B2C"/>
</g>
<g id="Group 10">
<path id="Vector_17" d="M4.70107 31.5219H0.0463867V0H5.12154V25.3557L4.70107 25.9663V31.5219ZM12.7893 31.9924C11.0474 32.0564 9.31994 31.6556 7.78421 30.8312C6.49552 30.1052 5.48486 28.9714 4.9113 27.608H3.97035L4.25066 21.9222H5.14151C5.10586 23.0414 5.35747 24.1511 5.8723 25.1455C6.36078 26.0028 7.12181 26.6723 8.03446 27.0474C10.0781 27.7908 12.3065 27.8574 14.3909 27.2376C15.1636 26.9723 15.8536 26.5099 16.3929 25.8962C16.966 25.1932 17.3609 24.3622 17.5441 23.4738C18.0113 21.0503 18.0113 18.5598 17.5441 16.1363C17.3653 15.2564 16.9773 14.4324 16.4129 13.7339C15.8737 13.1247 15.1831 12.6689 14.4109 12.4126C12.3095 11.7931 10.0654 11.8597 8.00446 12.6028C7.09726 12.9767 6.33768 13.6378 5.84224 14.4847C5.32321 15.4848 5.0715 16.602 5.11152 17.728H4.2206L3.94029 11.852H5.21159C5.86227 10.6617 6.81522 9.66383 7.9744 8.95909C9.52016 8.03768 11.3018 7.58882 13.0996 7.6678C14.4922 7.58114 15.8848 7.83582 17.1566 8.40977C18.4283 8.98371 19.5407 9.85953 20.397 10.9611C22.0586 13.1533 22.8895 16.1063 22.8895 19.8001C22.8895 23.4938 22.0286 26.4568 20.2969 28.6691C19.3972 29.7763 18.2475 30.6541 16.9422 31.2302C15.637 31.8062 14.2136 32.064 12.7893 31.9824V31.9924Z" fill="#231F20"/>
<path id="Vector_18" d="M31.5183 5.17523H26.5132V0H31.5883L31.5183 5.17523ZM31.5683 31.5219H26.4831V7.95808H31.5683V31.5219Z" fill="#231F20"/>
<path id="Vector_19" d="M56.5536 31.5219H34.5313V27.568L45.8728 15.9662L48.8758 12.9631V12.5327H35.192V8.11821H55.8429V12.3926L44.2211 24.0143L41.4983 26.657V27.0274H56.6037L56.5536 31.5219Z" fill="#231F20"/>
<path id="Vector_20" d="M64.6919 31.5219H59.6068V8.13827H64.2615V15.1454L64.6919 15.3856V31.5219ZM80.9184 31.5219H75.9133V17.9682C75.9133 15.8661 75.5129 14.3646 74.7121 13.4537C73.9112 12.5427 72.4598 12.0823 70.3677 12.0823C68.8328 11.961 67.309 12.426 66.1034 13.3836C65.1824 14.2444 64.7219 15.746 64.7219 17.8781L63.821 18.0584L63.4006 12.5127H64.5318C64.8793 11.6409 65.3888 10.8427 66.0333 10.1603C66.7704 9.39279 67.6558 8.78312 68.6359 8.36848C69.845 7.8735 71.1437 7.63494 72.4498 7.66782C74.1363 7.59533 75.809 8.00133 77.2746 8.83899C78.5002 9.61562 79.4603 10.7468 80.0274 12.0823C80.6438 13.5904 80.9469 15.2081 80.9184 16.8371V31.5219ZM97.1548 31.5219H92.0597V17.9682C92.0597 15.8661 91.6792 14.3646 90.9085 13.4537C90.1377 12.5427 88.6862 12.0823 86.5541 12.0823C85.019 11.9611 83.496 12.4341 82.2998 13.4036C81.3688 14.2845 80.9083 15.786 80.9083 17.9182L80.0174 18.0584L79.587 12.5127H80.3478C80.7594 11.6744 81.2886 10.8991 81.9194 10.2104C82.6447 9.41237 83.5367 8.78354 84.532 8.36848C85.7708 7.86739 87.1002 7.62884 88.436 7.66782C90.1512 7.59503 91.8529 8.00051 93.3509 8.83899C94.605 9.6103 95.5988 10.7401 96.2039 12.0823C96.8514 13.5825 97.1722 15.2033 97.1448 16.8371L97.1548 31.5219Z" fill="#231F20"/>
<path id="Vector_21" d="M108.346 31.9824C106.446 32.0509 104.577 31.4877 103.031 30.3808C102.326 29.8337 101.765 29.1229 101.397 28.31C101.029 27.4971 100.865 26.6067 100.919 25.716C100.879 24.5632 101.19 23.4254 101.81 22.4527C102.477 21.5009 103.395 20.7526 104.462 20.2906C105.803 19.6932 107.222 19.2888 108.677 19.0893L117.335 17.8681V21.4918L109.427 22.5728C108.435 22.671 107.474 22.9744 106.604 23.4638C106.325 23.6864 106.106 23.975 105.966 24.3035C105.826 24.6321 105.771 24.9902 105.804 25.3457C105.778 25.7381 105.858 26.1302 106.034 26.4819C106.21 26.8336 106.476 27.1324 106.805 27.3477C107.785 27.8442 108.882 28.0623 109.978 27.9783C111.098 27.9797 112.21 27.7971 113.271 27.4378C114.309 27.0936 115.22 26.4448 115.884 25.5759C116.613 24.4988 116.965 23.2105 116.885 21.9122L117.546 27.9183H116.835C116.343 28.685 115.723 29.362 115.003 29.9203C114.154 30.5853 113.2 31.1029 112.18 31.4518C110.942 31.8461 109.645 32.0255 108.346 31.9824ZM121.71 31.512H117.005V26.8972L116.865 25.626V16.6169C116.865 14.8651 116.444 13.6739 115.614 13.0432C114.408 12.3242 113.009 11.9955 111.61 12.1023C110.201 11.9821 108.792 12.3342 107.605 13.1033C107.166 13.5274 106.829 14.0464 106.621 14.6207C106.413 15.195 106.338 15.8093 106.404 16.4166V17.1174H101.519V16.6469C101.496 15.01 101.944 13.4011 102.811 12.0122C103.697 10.6309 104.952 9.52494 106.434 8.81892C108.132 8.01781 109.993 7.62369 111.87 7.66779C113.756 7.60222 115.628 8.02273 117.305 8.889C118.715 9.65489 119.863 10.8266 120.599 12.2524C121.362 13.8261 121.739 15.559 121.7 17.3076L121.71 31.512Z" fill="#231F20"/>
</g>
</g>
</svg>

<svg width="170" height="49" fill="none" xmlns="http://www.w3.org/2000/svg"><g fill="#231F20"><path d="M5.972 40.992a3.003 3.003 0 0 1 1.111 2.002l-.94.09a2.292 2.292 0 0 0-.821-1.502 2.593 2.593 0 0 0-1.672-.54 2.543 2.543 0 0 0-2.002.81 3.133 3.133 0 0 0-.75 2.213 3.093 3.093 0 0 0 .76 2.232 2.613 2.613 0 0 0 2.002.79 2.302 2.302 0 0 0 2.473-1.931l.95.08a3.003 3.003 0 0 1-1.13 1.952 3.934 3.934 0 0 1-4.926-.31 4.364 4.364 0 0 1 0-5.626 3.904 3.904 0 0 1 4.945-.26ZM15.792 40.21a3.666 3.666 0 0 1 2.693 1.002 3.714 3.714 0 0 1 1.071 2.793 3.755 3.755 0 0 1-1.071 2.802 4.004 4.004 0 0 1-5.396 0 3.754 3.754 0 0 1-1.07-2.802 3.635 3.635 0 0 1 3.773-3.844v.05Zm-2.002 1.632a3.454 3.454 0 0 0 0 4.425 2.772 2.772 0 0 0 2.002.81 2.735 2.735 0 0 0 2.002-.81 3.453 3.453 0 0 0 0-4.425 3.003 3.003 0 0 0-4.074 0h.07ZM30.731 47.798h-.78l-4.005-5.785v5.785h-.92v-7.487h.77l4.004 5.796V40.31h.911l.02 7.487ZM40.571 40.771a1.942 1.942 0 0 1 .75 1.522l-.93.06a1.44 1.44 0 0 0-1.632-1.341c-1 0-1.621.53-1.621 1.29a.93.93 0 0 0 .41.862c.445.224.92.383 1.411.47a5.417 5.417 0 0 1 1.882.7 1.502 1.502 0 0 1 .701 1.402 1.891 1.891 0 0 1-.75 1.622 3.153 3.153 0 0 1-1.913.54 3.273 3.273 0 0 1-2.002-.58 2.002 2.002 0 0 1-.84-1.602l.92-.05a1.351 1.351 0 0 0 .591 1.001c.39.27.857.407 1.331.39 1.001 0 1.732-.42 1.732-1.29a1.001 1.001 0 0 0-.33-.781 1.281 1.281 0 0 0-.43-.25 3.704 3.704 0 0 0-.531-.18 6.405 6.405 0 0 0-.69-.181c-.401-.09-.722-.18-1.002-.26a4.565 4.565 0 0 1-.74-.36 1.57 1.57 0 0 1-.721-1.462 2 2 0 0 1 .65-1.512 2.663 2.663 0 0 1 1.882-.61 2.873 2.873 0 0 1 1.872.6ZM53.054 40.31v4.686a3.003 3.003 0 1 1-6.006 0V40.32h.91v4.675a2.072 2.072 0 1 0 4.145 0V40.33l.95-.02ZM58.98 46.998h3.754v.81h-4.675v-7.487h.92v6.677ZM74.555 41.122h-2.782v6.676h-.921v-6.676h-2.783v-.811h6.486v.81ZM87.128 47.798h-1l-.782-1.901h-3.473l-.79 1.901H80.08l3.133-7.487h.781l3.133 7.487Zm-4.945-2.702h2.793l-1.391-3.374-1.402 3.374ZM97.8 47.798h-.782l-4.004-5.785v5.785h-.92v-7.487h.77l4.004 5.796V40.31h.911l.02 7.487ZM109.077 40.992a3.003 3.003 0 0 1 1.121 2.002l-1.001.09a2.249 2.249 0 0 0-.821-1.502 2.591 2.591 0 0 0-1.672-.54 2.542 2.542 0 0 0-2.002.81 3.13 3.13 0 0 0-.75 2.213 3.09 3.09 0 0 0 .76 2.232 2.621 2.621 0 0 0 2.002.79 2.324 2.324 0 0 0 2.483-1.931l1.001.08a3.006 3.006 0 0 1-1.141 1.952 3.934 3.934 0 0 1-4.925-.31 4.362 4.362 0 0 1 0-5.626 3.903 3.903 0 0 1 4.945-.28v.02ZM118.91 44.685v3.113H118v-3.113l-2.883-4.374h1.061l2.242 3.473 2.222-3.473h1.061l-2.793 4.374Z"/></g><path d="m129.33 8.117-3.248 3.25 7.037 7.034 3.248-3.249-7.037-7.035ZM154.001 8.14l-7.036 7.036 3.249 3.248 7.036-7.035-3.249-3.25ZM162.964 38.213l-3.249 3.25 7.036 7.035L170 45.249l-7.036-7.036ZM145.873 38.214l-7.036 7.035 3.249 3.25 7.035-7.037-3.248-3.248Z" fill="#231F20"/><path d="M154.413 31.442 141.67 18.699l-12.973 12.993h6.486l6.487-6.506 12.743 12.752 12.993-13.123h-6.436l-6.557 6.627Z" fill="#FE5B2C"/><g fill="#231F20"><path d="M4.701 31.522H.046V0h5.076v25.356l-.42.61v5.556Zm8.088.47a9.82 9.82 0 0 1-5.005-1.16 6.667 6.667 0 0 1-2.873-3.224h-.94l.28-5.686h.89a6.557 6.557 0 0 0 .731 3.223 4.424 4.424 0 0 0 2.162 1.902 10.14 10.14 0 0 0 6.357.19 4.695 4.695 0 0 0 2.002-1.34 5.635 5.635 0 0 0 1.151-2.423 19.381 19.381 0 0 0 0-7.338 5.595 5.595 0 0 0-1.131-2.402 4.615 4.615 0 0 0-2.002-1.321 10.3 10.3 0 0 0-6.407.19 4.485 4.485 0 0 0-2.162 1.882c-.519 1-.77 2.117-.73 3.243H4.22l-.28-5.876h1.27a7.718 7.718 0 0 1 2.763-2.893A9.22 9.22 0 0 1 13.1 7.668a8.569 8.569 0 0 1 7.297 3.293c1.662 2.192 2.493 5.145 2.493 8.84 0 3.693-.861 6.656-2.593 8.868a9.01 9.01 0 0 1-7.508 3.313v.01ZM31.518 5.175h-5.005V0h5.075l-.07 5.175Zm.05 26.347h-5.085V7.958h5.085v23.564ZM56.554 31.522H34.53v-3.954l11.342-11.602 3.003-3.003v-.43H35.192V8.118h20.65v4.275l-11.62 11.621-2.724 2.643v.37h15.106l-.05 4.495ZM64.692 31.522h-5.085V8.138h4.654v7.007l.43.24v16.137Zm16.226 0h-5.005V17.968c0-2.102-.4-3.603-1.2-4.514-.802-.911-2.253-1.372-4.345-1.372a6.085 6.085 0 0 0-4.265 1.302c-.92.86-1.381 2.362-1.381 4.494l-.901.18-.42-5.545h1.13a7.436 7.436 0 0 1 1.502-2.353 7.848 7.848 0 0 1 2.603-1.792 9.44 9.44 0 0 1 3.814-.7 8.949 8.949 0 0 1 4.825 1.171 7.146 7.146 0 0 1 2.752 3.243c.617 1.508.92 3.126.891 4.755v14.685Zm16.237 0H92.06V17.968c0-2.102-.38-3.603-1.151-4.514s-2.223-1.372-4.355-1.372a6.006 6.006 0 0 0-4.254 1.322c-.931.88-1.392 2.382-1.392 4.514l-.89.14-.431-5.545h.76a9.81 9.81 0 0 1 1.572-2.303 7.357 7.357 0 0 1 2.613-1.842 9.66 9.66 0 0 1 3.904-.7 9.259 9.259 0 0 1 4.915 1.171 7.358 7.358 0 0 1 2.853 3.243c.647 1.5.968 3.121.94 4.755l.01 14.685ZM108.346 31.982a8.598 8.598 0 0 1-5.315-1.601 5.484 5.484 0 0 1-2.112-4.665 5.704 5.704 0 0 1 .891-3.263 6.29 6.29 0 0 1 2.652-2.162 15.547 15.547 0 0 1 4.215-1.202l8.658-1.22v3.623l-7.908 1.08a7.205 7.205 0 0 0-2.823.892 2.154 2.154 0 0 0-.8 1.882 2.224 2.224 0 0 0 1.001 2.002c.98.496 2.077.714 3.173.63 1.12.002 2.232-.18 3.293-.54a5.446 5.446 0 0 0 2.613-1.862 5.89 5.89 0 0 0 1.001-3.664l.661 6.006h-.711a8.005 8.005 0 0 1-1.832 2.002 9.634 9.634 0 0 1-2.823 1.532 11.39 11.39 0 0 1-3.834.53Zm13.364-.47h-4.705v-4.615l-.14-1.271v-9.01c0-1.75-.421-2.942-1.251-3.573a6.808 6.808 0 0 0-4.004-.94 6.37 6.37 0 0 0-4.005 1 4.008 4.008 0 0 0-1.201 3.314v.7h-4.885v-.47a8.525 8.525 0 0 1 1.292-4.635 8.8 8.8 0 0 1 3.623-3.193 12.074 12.074 0 0 1 5.436-1.151 11.01 11.01 0 0 1 5.435 1.221 8.009 8.009 0 0 1 3.294 3.363 11.024 11.024 0 0 1 1.101 5.056l.01 14.204Z"/></g></svg>
